Enavato/img/google.svg

<svg xmlns="http://www.w3.org/2000/svg" width="47" height="48" viewBox="0 0 47 48"><filter filterUnits="objectBoundingBox" x="-2.17" y="-2.17" width="104.35" height="106.52" id="a"><feGaussianBlur in="SourceAlpha" stdDeviation=".5" result="dsBlurOut1"/><feFlood flood-color="#000" flood-opacity=".25" result="dsFloodOut1"/><feComposite in="dsFloodOut1" in2="dsBlurOut1" operator="in" result="dsShadow1"/><feOffset in="dsShadow1" dy="1" result="dsOffset1"/><feComposite in="dsOffset1" in2="SourceAlpha" operator="out" result="dropShadow1"/><feBlend in="dropShadow1" in2="SourceGraphic" result="sourceGraphic"/></filter><path d="M23.47 45.95c-12.42 0-22.5-10.07-22.5-22.5S11.05.95 23.47.95c12.43 0 22.5 10.07 22.5 22.5s-10.07 22.5-22.5 22.5zm-3.75-35.48c-3.44 0-5.01.92-6.06 1.81-.91.91-2.13 2.28-2.09 4.52 0 1.94 1.43 5.3 5.53 5.32.27-.02.44 0 1.08-.05-.22.5-.32.82-.33 1.29 0 .86.3 1.46 1 2.27-1.98.2-4.51.31-6.42 1.58-3.09 1.89-2.76 4.15-2.76 4.12.23 4.98 7.44 4.88 7.42 4.84 5.78-.05 8.7-3.23 8.7-6.42 0-1.71-.69-3.3-2.63-4.7-.85-.78-2.1-1.23-2.1-2.36 0-2.06 3.79-2.51 3.79-6.49-.13-3.04-2.18-4.35-2.44-4.52h2.1l2.17-1.21h-6.96zm17.04 3.01h-3.17v-3.17h-2.12v3.17H28.3v2.11h3.17v3.18h2.12v-3.18h3.17v-2.11zm-18.32 7.73c-2.89-.16-3.83-4.44-3.83-4.44s-1.13-5.05 2.92-5.1c3.16-.34 4.24 4.52 4.24 4.52s1.15 5.02-3.33 5.02zm5.27 9.91c-.09.14.39 3.44-5.02 3.64-5.8-.1-5.92-3.78-5.92-4.12-.03-3.83 5.14-4.02 6.47-4.06 1.15.14 4.43 2.05 4.47 4.54z" fill="#FFF" filter="url(#a)"/></svg>

<?xml version="1.0" encoding="utf-8"?>
<svg xmlns="http://www.w3.org/2000/svg"
	xmlns:xlink="http://www.w3.org/1999/xlink"
	width="47px" height="48px" viewBox="0 0 47 48">
<filter filterUnits="objectBoundingBox" x="-2.17" y="-2.17" width="104.35" height="106.52" id="filter0">
<feGaussianBlur in="SourceAlpha" stdDeviation="0.50" result="dsBlurOut1"/>
<feFlood flood-color="rgb(0,0,0)" flood-opacity="0.25" result="dsFloodOut1"/>
<feComposite in="dsFloodOut1" in2="dsBlurOut1" operator="in" result="dsShadow1"/>
<feOffset in="dsShadow1" dx="-0.00" dy="1.00" result="dsOffset1"/>
<feComposite in="dsOffset1" in2="SourceAlpha" operator="out" result="dropShadow1"/>
<feBlend in="dropShadow1" in2="SourceGraphic" mode="normal" result="sourceGraphic"/>
</filter>
<path fillRule="evenodd" d="M 23.47 45.95C 11.05 45.95 0.97 35.88 0.97 23.45 0.97 11.02 11.05 0.95 23.47 0.95 35.9 0.95 45.97 11.02 45.97 23.45 45.97 35.88 35.9 45.95 23.47 45.95ZM 19.72 10.47C 16.28 10.47 14.71 11.39 13.66 12.28 12.75 13.19 11.53 14.56 11.57 16.8 11.57 18.74 13 22.1 17.1 22.12 17.37 22.1 17.54 22.12 18.18 22.07 17.96 22.57 17.86 22.89 17.85 23.36 17.85 24.22 18.15 24.82 18.85 25.63 16.87 25.83 14.34 25.94 12.43 27.21 9.34 29.1 9.67 31.36 9.67 31.33 9.9 36.31 17.11 36.21 17.09 36.17 22.87 36.12 25.79 32.94 25.79 29.75 25.79 28.04 25.1 26.45 23.16 25.05 22.31 24.27 21.06 23.82 21.06 22.69 21.06 20.63 24.85 20.18 24.85 16.2 24.72 13.16 22.67 11.85 22.41 11.68 22.47 11.68 24.51 11.68 24.51 11.68 24.51 11.68 26.68 10.47 26.68 10.47 26.68 10.47 19.76 10.47 19.72 10.47ZM 36.76 13.48C 36.76 13.48 33.59 13.48 33.59 13.48 33.59 13.48 33.59 10.31 33.59 10.31 33.59 10.31 31.47 10.31 31.47 10.31 31.47 10.31 31.47 13.48 31.47 13.48 31.47 13.48 28.3 13.48 28.3 13.48 28.3 13.48 28.3 15.59 28.3 15.59 28.3 15.59 31.47 15.59 31.47 15.59 31.47 15.59 31.47 18.77 31.47 18.77 31.47 18.77 33.59 18.77 33.59 18.77 33.59 18.77 33.59 15.59 33.59 15.59 33.59 15.59 36.76 15.59 36.76 15.59 36.76 15.59 36.76 13.48 36.76 13.48ZM 18.44 21.21C 15.55 21.05 14.61 16.77 14.61 16.77 14.61 16.77 13.48 11.72 17.53 11.67 20.69 11.33 21.77 16.19 21.77 16.19 21.77 16.19 22.92 21.21 18.44 21.21ZM 23.71 31.12C 23.62 31.26 24.1 34.56 18.69 34.76 12.89 34.66 12.77 30.98 12.77 30.64 12.74 26.81 17.91 26.62 19.24 26.58 20.39 26.72 23.67 28.63 23.71 31.12Z" fill="rgb(255,255,255)" filter="url(#filter0)"/></svg>
